assets/avatar/avatar6-1-1.svg

<svg fill="none" height="200" viewBox="0 0 200 200" width="200" xmlns="http://www.w3.org/2000/svg" xmlns:xlink="http://www.w3.org/1999/xlink"><linearGradient id="a" gradientUnits="userSpaceOnUse" x1="106.969" x2="106.969" y1="59.3333" y2="139.333"><stop offset="0" stop-color="#ffd4b3"/><stop offset="1" stop-color="#ffdcc2"/></linearGradient><clipPath id="b"><rect height="200" rx="100" transform="matrix(-1 0 0 1 200 0)" width="200"/></clipPath><g clip-path="url(#b)"><path d="m51.6668 106.333c-5.408-17.9603-8.7414-48.6663 14-69.6663 17.38-16.0494 64.3332-17.6667 80.6662 17.3333 2.727 5.8427-1 15-8.333 14.6667-2.882-.1334-4.667 9-6.333 14.6666 2.333 22.9997 23.121 23.4247 33.666 40.9997 13 21.667-3 53.667-41.333 53.667-38.3333 0-60.3079-31.73-72.3332-71.667z" fill="#aa5509"/><path d="m38.6665 158.667c-4.8887 9.333-7.3333 43.333-7.3333 43.333h137.3338s-2.445-34-7.334-43.333c-7.333-14-61.3332-32-61.3332-32s-54 18-61.3333 32z" fill="#000"/><path d="m84 134.667s8.5106 4.666 16.34 4.666c7.829 0 15.66-4.666 15.66-4.666v-14.667c1.684.266 3.391.367 5.095.303 15.992-.002 22.022-23.2957 18.905-51.6364-2 0-6.667 0-13.333-9.3333 1.666 13-17.667 11-25 .6666 3.666 12.3334-6.0004 20.6667-14.3337 15.6667-16.3407-9.8047-20.014 20.084-3.3333 20.3333z" fill="url(#a)"/><path d="m116 120c-8.27-1.523-16.1831-4.575-23.3333-9 0 0 8.3333 14.333 23.3333 14.333z" fill="#ffb597"/><path d="m99.9783 138.65c-4.818-.218-15.978-2.578-15.978-7.677v-4.306c-1.2227 0-4.7234 2.888-6.524 5.333-7.1174 9.667.7773 18.333 7.216 18.333 8.124 0 13.508-6.788 15.3077-10.053 1.8 3.267 7.184 10.053 15.308 10.053 6.439 0 14.334-8.666 7.216-18.333-1.8-2.445-5.301-5.333-6.524-5.333v4.306c0 5.099-11.461 7.459-16.0217 7.677z" fill="#fff"/></g></svg>

<svg width="200" height="200" viewBox="0 0 200 200" fill="none" xmlns="http://www.w3.org/2000/svg">
<g clip-path="url(#clip0_266_2678)">
<path d="M51.6668 106.333C46.2588 88.3727 42.9254 57.6667 65.6668 36.6667C83.0468 20.6173 130 19 146.333 54C149.06 59.8427 145.333 69 138 68.6667C135.118 68.5333 133.333 77.6667 131.667 83.3333C134 106.333 154.788 106.758 165.333 124.333C178.333 146 162.333 178 124 178C85.6667 178 63.6921 146.27 51.6668 106.333Z" fill="#AA5509"/>
<path d="M38.6665 158.667C33.7778 168 31.3332 202 31.3332 202H168.667C168.667 202 166.222 168 161.333 158.667C154 144.667 99.9998 126.667 99.9998 126.667C99.9998 126.667 45.9998 144.667 38.6665 158.667Z" fill="black"/>
<path d="M84 134.667C84 134.667 92.5106 139.333 100.34 139.333C108.169 139.333 116 134.667 116 134.667V120C117.684 120.266 119.391 120.367 121.095 120.303C137.087 120.301 143.117 97.0073 140 68.6666C138 68.6666 133.333 68.6666 126.667 59.3333C128.333 72.3333 109 70.3333 101.667 59.9999C105.333 72.3333 95.6666 80.6666 87.3333 75.6666C70.9926 65.8619 67.3193 95.7506 84 95.9999V134.667Z" fill="url(#paint0_linear_266_2678)"/>
<path d="M116 120C107.73 118.477 99.8169 115.425 92.6667 111C92.6667 111 101 125.333 116 125.333V120Z" fill="#FFB597"/>
<path d="M99.9783 138.65C95.1603 138.432 84.0003 136.072 84.0003 130.973V126.667C82.7776 126.667 79.2769 129.555 77.4763 132C70.3589 141.667 78.2536 150.333 84.6923 150.333C92.8163 150.333 98.2003 143.545 100 140.28C101.8 143.547 107.184 150.333 115.308 150.333C121.747 150.333 129.642 141.667 122.524 132C120.724 129.555 117.223 126.667 116 126.667V130.973C116 136.072 104.539 138.432 99.9783 138.65Z" fill="white"/>
</g>
<defs>
<linearGradient id="paint0_linear_266_2678" x1="106.969" y1="59.3333" x2="106.969" y2="139.333" gradientUnits="userSpaceOnUse">
<stop stop-color="#FFD4B3"/>
<stop offset="1" stop-color="#FFDCC2"/>
</linearGradient>
<clipPath id="clip0_266_2678">
<rect width="200" height="200" rx="100" transform="matrix(-1 0 0 1 200 0)" fill="white"/>
</clipPath>
</defs>
</svg>
